X:186
%%pagewidth 9in
%%vocalfont Baskerville10Pro 15
T:Derry down
M:6/8
L:1/8
K:G
%%score 1 2
V:1 clef-treble
V:2 clef-bass octave=-1
[V:1]B|(Bc)B AGF & E3x3|GFE ^D2D|E>FE GFE|
w:An an-*cient sto-ry I'll tell you a-non, Of~a no-ta-ble prince that was
[V:2]z|G3[^DB]3|[EB]3[B,B]3|[CG]3G3&x3EDC|
[V:1]DEFG2A/G/|FED D>ED|D>ED[Bd]2[A^d]|
w:call-ed King John; And he rul'd o-ver Eng-land with main and with might, For
[V:2]BcAB2z&D3G,2z|[DA]3[CF]3|[B,G]3G,2F,|
[V:1][Gd]BB c>BA & x3E2x|B>AG A>G[^DF] & E2x E2x|E3[EB]3|A>G[^DF] E2 & C2xx2||
w:he did great wrong, And main-tain'd lit-tle right,* Derry down, down, hey, der-ry down.
[V:2]E,3A3|G3F2B,|C3G,3|A,2B,E2||

